X:1
T:Title
L:1/8
M:4/4
K:C
V:1 treble nm="Grand Piano"
V:1
 z4 z[Q:1/4=100] C/D/ EC/E/- | E4- EE/F/ GE/G/- | G4 FF FF/E/- | E4- E/EE/ DC/[K:bass]B,/ | %4
 A,4- A,C/D/[K:treble] EC/E/ | E4- EE/F/ GE/G/- | G4 FF FF/E/- | E4- E/EE/ DC/B,/ |[M:2/4] A,4 | %9
 z E EF/A/- |[M:4/4] AA GE/A/- AA G/F/E/G/- | G4 FF FF/E/- | EE EE/^F/- FF FA/B/- | B4- BA AB/c/- | %14
 cd BA/B/- Bc A/G/E/G/- | G4 FF FF/E/- | EE EE/D/- DE DC/E/- | E2 D2 .C2 z2 |] %18

